X:4 
T:Carolan's Dream
B:CNIM.27
F:file ID: ofnim/04dream
Z:bill@capeirish.com
Q:100
M:4/4
L:1/8
K:Am
AB|c2B>A A2GA|c2BA G2cd|e2de c2BA|A4 A2de |
f2fg e2ef|d^cde a3g|aged c2AG|A6 :|
ef|gede g3a|gede g3e|agab ageg|a6 ag |
f2fg e2ef|d^cde a2ab|aged c2AG|A6 :|

